!!!COM: Victor Masse/
!!!CNT: Francais
!!!TXO: Francais
!!!OTL: Le Muletier de Calabre
!!!LYR: Joseph Vimeux
!!!OPR: Premie\res Me/lodies
!!!ONM: No. 5
!!!ENC: Jacob Pegg
!!!YOR: Romantic French Song 1830-1870 -David Tunley, ed.,
!!!YOR: New York: Garland Publishing, Inc., 1995, Vol. 4
!!!ODT: 1868/
!!NB: Vocal melody and text only encoded.
!!NB: First instance of melodic material only encoded.
**kern	**silbe
*clef G2	*
*k[]	*
*M2/4	*
=25	=25
!! The perjorative term "Mullet," meaning a hairstyle that is 
!! long in the back but short in the front, 
!! is believed to be derived from "Mulleteer" (fr. Muletier)
{(dq	{A-
[4c)	|
8.c]	-hu!
16G	mes
=26	=26
(4A	mu-
8G)}	les,}
8r	.
=27	=27
{(dq	{Sans
[4c)	|
8.c]	|
16G	e/-
=28	=28
(4A	-mu-
8G)}	-les,}
8r	.
=29	=29
{4G	{En
4A	Ca-
=30	=30
4B	-la-
4c	-bre em-
=31	=31
(4.d	-por-
8A)	-tez~
=32	=32
2B}	~moi!}
=33	=33
{(dq	{A-
[4c)	|
8.c]	-hu!
16G	co-
=34	=34
(4A	-quet-
8G)}	-tes,}
8r	.
=35	=35
{(dq	{Et
[4c)	|
8.c]	|
16G	fol-
=36	=36
(4A	-let-
8G)}	-tes,}
8r	.
=37	=37
{4G	{Mon
4A	coeur
=38	=38
4B	se
(dq	rem-
4c)	|
=39	=39
(4.B	-plit
8A)	d'ef-
=40	=40
4G}	-froi;}
4r	.
=41	=41
{4.G	{Ma
8G	mai^-
=42	=42
2c	-tresse
=43	=43
(4B-	est
8.c)	in-
16B-	-fi-
=44	=44
4E-	-de\-
8E-}	-le,}
8r	.
=45	=45
{4.F	{Mon
8F	ri-
=46	=46
(8G	-val
8A-)	|
(8G	bien-
8A-)	|
=47	=47
(8G	-to^t
8A-)	|
8G	pe/-
8D	-ri-
=48	=48
4E-}	-ra.}
4r	.
=49	=49
{4G	{Elle
(8.G	est
16c)	si
=50	=50
4c	bel-
4c	-le,
=51	=51
(8B-	je
4c	n'ai-
8B-	-me
=52	=52
4E-)	qu'el-
8E-}	-le.}
8r	.
=53	=53
{8F	{Clic!
4r	.
8r	.
=54	=54
8G	clac!
4r	.
8r	.
=55	=55
[4c	ahr-
8.c]	|
16c	-rhi-
=56	=56
8G}	-ah!}
8r	.
{8G	{clic!
8r	.
=57	=57
8G	clac!
8r	.
8G	clic!
8r	.
=58	=58
8G	clac!
8r	.
8G	clic!
16r	.
16r	.
=59	=59
8G}	clac!}
8r	.
{(8.G	{ahr-
16d)	-rhi-
=60	=60
[2d	-ah!!
=61	=61
2d]}	|}
=62	=62
{(2c	{Elle
=63	=63
2A	est
=64	=64
2G	si
=65	=65
4E)	bel-
4E}	-le}
=66	=66
{2F	{Je
=67	=67
2G	n'ai-
=68	=68
2G#	-me
=69	=69
4B	qu'el-
4A}	-le}
=70	=70
{2B	{Je
=71	=71
2c	n'ai-
=72	=72
(2d	-me
=73	=73
8e)	qu'el-
8e}	-le}
{8c#	{clic!
8r	.
=74	=74
8d	clac!
8r	.
8B	clic!
8r	.
=75	=75
8c	clac!
8r	.
8A	clic!
8r	.
=76	=76
8G}	clac!}
8r	.
{8.B	{ahr-
16B	-rhi-
=77	=77
8c	-ah!
8r	.
8B	clic!
8r	.
=78	=78
8c	clac!
8r	.
8B	clic!
8r	.
=79	=79
8c	clac!
8r	.
8B	clic!
16r	.
16r	.
=80	=80
8c}	clac!}
16r	.
{(32c	{ahr-
32d	|
8.e;)	|
(48d	-rhi-
48e	|
48d	|
=81	=81
[2c)	-ah!
=82	=82
2c_	|
=83	=83
2c_	|
=84	=84
2c]}	|}
!!two melodically equivalent strophes follow. 
*-	*-
